X:154
T:Ted and Pam's Place
M:6/8
R:Jig
C:© Paul Gitlitz 2007
K:G
(3A/B/c/|"G"d2B "Am"cBA|"G"BAG "D"AGF|"Bm"DEF "G"GAB|"G/B"dGB "D"A2B|!
"G"dDD "G/D"cDD|"G/B"BDD "D"ADD|"Bm"DEF "G"GBG|1"D"AFD "G"G2:|2"D"AFD "G"G3|!
K:D
|"Em"B,EG "G"BGB|"D"AFD "Em"G2F|"D"DFA "Bm/F#"Bdf|"A"ecA"D"d2e|!
"Bm"~f3 "Bm/F#"fed|"Em"~e3 "A"edc|"G"Bde "Bm"fed|"F#m"cBA "G"GFE|!
"Em"B,EG "G"BGB|"D"AFD "Em"G2F|"D"DFA "Bm/F#"def|"A"ecA "D"d2e|!
"Bm"fdf "A"ece|"G"dBd "F#m"cAc|"G"BGB "D"AFA|"Em"GEF "A"ABc|]|
